X:1
T: Mr Alex Walker (Castle Newe)
C:Alexander Walker
R:Strathspey
Q: 128
K:A
M:4/4
L:1/16
|:F2|EA,3 CE3 A4 A3E|A4 A3c BB,3 B,3C|A,A,3 C3E A4 A3B|((3c2B2C2) ((3C2G2A2) ((3E2F2D2) ((3C2D2B,2) |
EA,3 CE3 A4 A3E|A4 A3c dB3 B3d|ce3 a3g f3d e3d|cA3 B3G A3A, A,2f2|
eA3 c3A F3A E3A|DF3 CE3 FB,3 B,3f|eA3 c3A F3A E3A|d3f e3g aA3 A3f|
eA3 c3A F3A E3A|d3B c3A GB3 B3c|A3E c3A d3B e3c|f3B g3e aA3 A2:|
